X: 2
T: The Bohola
R: jig
M: 6/8
L: 1/8
K: Dmaj
fef d2B|ABA ABd|~e3 edB|efe ede|
fef d2B|ABA ABd|e3 ede|f2e d2e:|
|:fef a2f|fef a2f|efe edB|efe ede|
[1 fef a2f|fef a2f|efe ede|f2e d2e:|
[2 fef d2B|ABA ABd|e3 ede|f2e d2e|


Tune 414	Setting 15458

